X:468450
T: Da Full Rigged Ship
R: jig
M: 6/8
L: 1/8
Z: Contributed 2018-08-10 13:06:39 by  smnwlls58@gmail.com
K: Amin
e|(e2 a) (aea)|(aea) (b2a)|e2 ^f g2 g|(fag) (^fed)|
(e2 a) (aea)|(aea) (b2a)|(gfe) (dBG)|A3 AE3:|
(efe) (edB)|(A2 B) c3|BAG BAG|(Bcd) E3|
(efe) (edB)|(A2 B) (c2 d)|(efe) (dBG)|1A3 A3:|2 A3 (A2 E)||
(EGE) (EGE)|(EGE) c3|(EGE) (E2 D)|(E2 F) (GEC)|
(EGE) (EGE)|(EGE) (c2 d)|(efe) (dBG)|1A3 (A2 G):|2 A3 A2||

